!!!OTL: "Der Alpjaeger" DIE JAEGER DIE HABN HALT A LEBEN
!!!ARE: Europa, Mitteleuropa, Tirol
!!!SCT: Z1286
!!!YEM: Copyright 1995, estate of Helmut Schaffrath.
**kern
*ICvox
*Ivox
*M3/4
*k[b-e-a-]
*E-:
=1
{4E-
8E-
8D
8E-
8F
=2
4G
8G
8F
8G
8A-
=3
2.c
=4
2.B-}
=5
{8B-
8g
8g
8e-
8e-
8B-
=6
8A-
8f
8f
8d
8F
8d
=7
2e-
4r}
=8
{4E-
8E-
8D
8E-
8F
=9
4G
8G
8F
8G
8A-
=10
2.c
=11
2.B-}
=12
{8B-
8g
8g
8e-
8e-
8B-
=13
8A-
8f
8f
8d
8F
8d
=14
2e-
4r}
=15
{4B-
8A-
8G
4A-
=16
8A-
8f
8f
8d
8d
8A-}
=17
{4c
8B-
8A-
4B-
=18
8B-
8g
8g
8e-
8e-
8G}
=19
{4B-
8A-
8G
4A-
=20
8A-
8f
8f
8d
8d
8B-}
=21
{8B-
8g
8g
8e-
8f
8d
=22
2e-
8r}
{8B-
=23
8B-
8b-
4g
8g
8B-
=24
8B-
8g
4.e-}
{8B-
=25
8B-
8a-
8f
8d
4f
=26
8B-
8f
4.d}
{8B-
=27
8B-
8b-
4.g
8B-
=28
8B-
8g
4.e-}
{8B-
=29
8B-
8a-
8f
8d
8B-
8d
=30
2.e-}
==
!!!AGN: Jaeger - Lied
!! Die letzten 8 Takte werden auf Silben gesungen.
!!!ONB: ESAC (Essen Associative Code) Database: ZUCCAL
!!!AMT: simple triple
!!!AIN: vox
!!!EED: Helmut Schaffrath
!!!EEV: 1.0
*-
